X: 16
T: Shannon Breeze 
T: Rolling in the Ryegrass
M: 4/4
L: 1/8
R: Reel
K: D
ABAF DFAF|G2 BG dGBG|ABAF DFAF|GBAF E2 D2 :|
ABde f2 df|g2 eg fedB|ABde f2 df|afdf e2 d2 :|
